src/assets/icon/Icon=pencil.svg

<svg width="16" height="16" viewBox="0 0 16 16" fill="none" xmlns="http://www.w3.org/2000/svg">
<path d="M0.0138015 14.955C-0.0113336 15.096 -0.00204033 15.2409 0.0408905 15.3776C0.0838214 15.5142 0.159119 15.6384 0.260377 15.7396C0.361634 15.8409 0.485855 15.9162 0.622468 15.9591C0.759081 16.002 0.904043 16.0113 1.04502 15.9862L6.01383 15.1091C6.19281 15.0771 6.35757 14.9906 6.48796 14.8614L15.2581 6.09279C15.7332 5.61526 16 4.969 16 4.29534C16 3.62168 15.7332 2.97542 15.2581 2.49788L13.5038 0.743693C13.0265 0.267849 12.3802 0.000444822 11.7062 5.54463e-07C11.0322 -0.000443713 10.3855 0.266108 9.90757 0.741322L1.13866 9.51228C1.00961 9.64116 0.923505 9.80673 0.892115 9.98639L0.0149869 14.955H0.0138015ZM6.6942 12.14L3.86013 9.30605L8.78271 4.38246L11.618 7.21761L6.6942 12.14ZM13.9993 4.83523L12.8744 5.96123L10.0391 3.12608L11.1652 2.00007C11.3089 1.85734 11.5032 1.77723 11.7057 1.77723C11.9082 1.77723 12.1025 1.85734 12.2462 2.00007L14.0004 3.75427C14.1438 3.89763 14.2243 4.09204 14.2243 4.29475C14.2243 4.49745 14.1438 4.69186 14.0004 4.83523H13.9993ZM1.98616 14.0151L2.59303 10.5719L2.60252 10.5624L5.43777 13.3976L5.42829 13.4071L1.98616 14.0151Z" fill="black"/>
</svg>

<svg xmlns="http://www.w3.org/2000/svg" width="16" height="16" fill="none" viewBox="0 0 16 16"><path fill="#000" d="M.014 14.955a.89.89 0 0 0 1.031 1.031l4.969-.877a.898.898 0 0 0 .474-.248l8.77-8.768a2.549 2.549 0 0 0 0-3.595L13.504.744A2.548 2.548 0 0 0 9.908.74l-8.77 8.771a.885.885 0 0 0-.246.474l-.877 4.969H.014zm6.68-2.815L3.86 9.306l4.923-4.924 2.835 2.836-4.924 4.922zM14 4.835l-1.125 1.126-2.835-2.835L11.165 2a.767.767 0 0 1 1.081 0L14 3.754a.764.764 0 0 1 0 1.081zm-12.013 9.18l.607-3.443.01-.01 2.835 2.836-.01.01-3.442.607z"/></svg>
